X: 137
T: Ordination (jig)
N: 150117
C: BB
R: jig
Q: 1/8=340
M: 6/8
L: 1/8
K: A
c|"A"A2 c "Bm"BAB|"F#m"eaf "E"efg|"D"afe "A"ABc|"Bm"BFF F2 c|
"A"A2 c "Bm"BAB|"F#m"eaf "E"efg|"D"afd "E7"Bed|"A"cAG "A"A2 :|
e|"A"ecA "Bm"B2 A|"A"c2 A "Bm"B2 A|"A"ece "D"fga|"Bm"fBB "E"B2 e|
"A"ecA "Bm"B2 A|"A"c2 A "Bm"B2 A|"D"afd "E7"Bed|"A"cAG "A"A2 :|
%%%%%%%%%%%%%%%%%%%%%%%%%%%%%%%%%%%%%%%%%%%
